svg/loading.svg

<svg xmlns="http://www.w3.org/2000/svg" width="256" height="256" viewBox="0 0 849 849">
    <path d="M424.25 371.97c17.44 17.43 34.85 34.88 52.32 52.29-17.47 17.4-34.92 34.82-52.3 52.31-17.4-17.49-34.92-34.84-52.28-52.36 17.44-17.4 34.84-34.83 52.26-52.24"/>
    <path d="M79.97 424.24c37.94-37.9 75.82-75.86 113.79-113.75 25.51.02 51.03-.01 76.55.02-37.87 37.94-75.81 75.81-113.71 113.74 37.73 37.76 75.5 75.48 113.23 113.25-25.55-.01-51.09.02-76.63-.01-37.74-37.76-75.5-75.49-113.23-113.25" class="loader-left"/>
    <path d="M424.19 223.99c66.87 66.68 133.56 133.55 200.38 200.28-66.82 66.72-133.58 133.48-200.29 200.3-66.75-66.81-133.6-133.52-200.3-200.37 66.76-66.71 133.51-133.44 200.21-200.21M300.61 424.22c41.18 41.28 82.45 82.47 123.67 123.71 41.15-41.28 82.42-82.44 123.62-123.68-41.16-41.25-82.49-82.35-123.58-123.69-41.28 41.18-82.45 82.46-123.71 123.66" class="loader-center"/>
    <path d="M578.17 310.5c25.54 0 51.08-.01 76.62.01 37.93 37.92 75.84 75.85 113.78 113.76-37.84 37.69-75.52 75.54-113.33 113.24-25.52-.03-51.04.01-76.55-.02C616.4 499.72 654.17 462 691.9 424.25c-37.9-37.92-75.83-75.82-113.73-113.75" class="loader-right"/>
</svg>

<svg width="256px" height="256px" viewBox="0 0 849 849" version="1.1" xmlns="http://www.w3.org/2000/svg"><path d=" M 424.25 371.97 C 441.69 389.40 459.10 406.85 476.57 424.26 C 459.10 441.66 441.65 459.08 424.27 476.57 C 406.87 459.08 389.35 441.73 371.99 424.21 C 389.43 406.81 406.83 389.38 424.25 371.97 Z" /><path class="loader-left" d=" M 79.97 424.24 C 117.91 386.34 155.79 348.38 193.76 310.49 C 219.27 310.51 244.79 310.48 270.31 310.51 C 232.44 348.45 194.50 386.32 156.60 424.25 C 194.33 462.01 232.10 499.73 269.83 537.50 C 244.28 537.49 218.74 537.52 193.20 537.49 C 155.46 499.73 117.70 462.00 79.97 424.24 Z" /><path class="loader-center" d=" M 424.19 223.99 C 491.06 290.67 557.75 357.54 624.57 424.27 C 557.75 490.99 490.99 557.75 424.28 624.57 C 357.53 557.76 290.68 491.05 223.98 424.20 C 290.74 357.49 357.49 290.76 424.19 223.99 M 300.61 424.22 C 341.79 465.50 383.06 506.69 424.28 547.93 C 465.43 506.65 506.70 465.49 547.90 424.25 C 506.74 383.00 465.41 341.90 424.32 300.56 C 383.04 341.74 341.87 383.02 300.61 424.22 Z" /><path class="loader-right" d=" M 578.17 310.50 C 603.71 310.50 629.25 310.49 654.79 310.51 C 692.72 348.43 730.63 386.36 768.57 424.27 C 730.73 461.96 693.05 499.81 655.24 537.51 C 629.72 537.48 604.20 537.52 578.69 537.49 C 616.40 499.72 654.17 462.00 691.90 424.25 C 654.00 386.33 616.07 348.43 578.17 310.50 Z" /></svg>
